svg/monochrome/comment-alt-plus.svg

<svg xmlns="http://www.w3.org/2000/svg" viewBox="0 0 24 24"><path class="uim-primary" d="M15 9h-2V7a1 1 0 0 0-2 0v2H9a1 1 0 0 0 0 2h2v2a1 1 0 0 0 2 0v-2h2a1 1 0 0 0 0-2Z"/><path class="uim-tertiary" d="M19 2H5a3.003 3.003 0 0 0-3 3v10a3.003 3.003 0 0 0 3 3h11.586l3.707 3.707A1 1 0 0 0 22 21V5a3.003 3.003 0 0 0-3-3Zm-4 9h-2v2a1 1 0 0 1-2 0v-2H9a1 1 0 0 1 0-2h2V7a1 1 0 0 1 2 0v2h2a1 1 0 0 1 0 2Z"/></svg>

<svg xmlns="http://www.w3.org/2000/svg" viewBox="0 0 24 24"><path class="uim-primary" d="M15,9H13V7a1,1,0,0,0-2,0V9H9a1,1,0,0,0,0,2h2v2a1,1,0,0,0,2,0V11h2a1,1,0,0,0,0-2Z"/><path class="uim-tertiary" d="M19,2H5A3.00328,3.00328,0,0,0,2,5V15a3.00328,3.00328,0,0,0,3,3H16.58594l3.707,3.707A.99991.99991,0,0,0,22,21V5A3.00328,3.00328,0,0,0,19,2Zm-4,9H13v2a1,1,0,0,1-2,0V11H9A1,1,0,0,1,9,9h2V7a1,1,0,0,1,2,0V9h2a1,1,0,0,1,0,2Z"/></svg>
